public/library/aptos-text-light.svg

<svg xmlns="http://www.w3.org/2000/svg" width="1500" height="418" fill="none" viewBox="0 0 1500 418"><path fill="#0f0e0b" d="M1413.02 341.03c-18.31 0-34.34-3.005-48.07-9.014q-20.61-9.443-32.19-24.465c-7.73-10.301-12.45-21.603-14.17-33.907l38.2-13.306h1.72c1.43 9.157 4.44 17.168 9.01 24.036 4.87 6.867 11.16 12.161 18.89 15.881q12.015 5.15 26.61 5.15c8.01 0 15.17-1.287 21.46-3.863q9.45-4.292 14.16-11.588 5.16-7.297 5.16-16.74c0-8.012-2.58-14.307-7.73-18.885-4.86-4.864-12.16-8.584-21.89-11.159l-42.49-9.872c-10.3-2.576-19.46-5.866-27.47-9.872-8.01-4.292-14.74-10.444-20.17-18.456q-8.16-12.018-8.16-30.474c0-12.018 3.43-22.892 10.3-32.62 6.87-10.015 16.31-17.884 28.33-23.607q18.45-8.584 42.06-8.584c15.17 0 28.76 2.432 40.78 7.296s21.74 11.732 29.18 20.603c7.73 8.584 12.88 18.742 15.46 30.474l-38.63 11.588h-1.72q-3-17.168-15.45-26.611c-8.01-6.581-17.89-9.872-29.62-9.872-11.16 0-20.31 2.862-27.47 8.585-6.86 5.722-10.3 12.304-10.3 19.743 0 6.868 2.43 12.447 7.3 16.74 4.86 4.005 11.73 7.153 20.6 9.442l38.2 9.443c12.88 3.147 23.75 7.01 32.62 11.589 8.87 4.578 16.02 11.159 21.46 19.743q8.16 12.876 8.16 34.337c0 12.876-3.58 24.465-10.73 34.766-7.16 10.301-17.17 18.456-30.05 24.465q-18.885 9.014-43.35 9.014M1193.64 341.03q-31.77 0-57.09-15.023c-16.88-10.015-30.04-23.749-39.49-41.204q-14.16-26.611-14.16-59.66 0-33.05 14.16-59.231c9.45-17.455 22.61-31.19 39.49-41.205q25.32-15.022 57.09-15.022c21.17 0 40.2 5.007 57.08 15.022s30.05 23.893 39.49 41.634c9.73 17.454 14.59 37.055 14.59 58.802 0 22.033-4.86 41.919-14.59 59.66-9.44 17.455-22.61 31.189-39.49 41.204s-35.91 15.023-57.08 15.023m0-36.483q19.74 0 35.19-10.301c10.3-6.868 18.32-16.31 24.04-28.328 6.01-12.018 9.01-25.61 9.01-40.775 0-15.166-3-28.614-9.01-40.346-5.72-12.018-13.74-21.461-24.04-28.328q-15.45-10.301-35.19-10.301c-13.17 0-24.9 3.433-35.2 10.301q-15.45 10.3-24.03 28.328c-5.73 11.732-8.59 25.18-8.59 40.346s2.86 28.757 8.59 40.775q8.58 18.027 24.03 28.328c10.3 6.867 22.03 10.301 35.2 10.301M1044.76 341.105q-29.61 0-47.642-17.168-17.598-17.598-17.598-51.505V149.248h-39.916v-35.196q21.03 0 28.757-3.004 8.154-3.434 10.301-13.305 2.575-9.873 2.575-35.625h39.483v51.934h58.38v35.196h-58.38v120.608c0 11.732 2.87 20.459 8.59 26.182q9.015 8.584 22.32 8.584 7.29 0 12.87-1.287c4.01-.859 7.87-2.576 11.59-5.151v35.625c-2.86 2.003-7.29 3.72-13.3 5.15q-9.015 2.146-18.03 2.146M720.23 415.283V113.977h41.205v32.191q9.872-15.881 29.615-26.182 20.173-10.3 42.921-10.301 29.187 0 52.793 15.022 24.037 15.022 37.342 41.634 13.305 26.181 13.305 59.231t-13.734 59.66q-13.306 26.182-37.342 41.205-23.606 14.593-53.651 14.593-21.89 0-41.634-10.301-19.743-10.302-29.615-26.182V417H720.23zm106.445-110.736q19.743 0 35.195-9.872t24.036-27.899 8.584-40.775q0-23.607-8.584-41.633t-23.607-27.899q-15.022-10.301-34.336-10.301-18.027 0-32.621 8.584-14.592 8.155-23.606 23.177-9.014 14.594-10.301 33.479v28.757q1.287 18.885 9.872 33.479 9.013 14.592 23.177 22.748 14.593 8.154 32.191 8.155M416.818 335.034l10.301-25.753L538.285 27.289h43.351l111.165 281.992 10.731 25.753v1.717H655.46l-.859-1.717-9.871-25.753-84.984-222.76-85.843 222.76-9.871 25.753-.859 1.717h-46.355zm57.515-114.171h168.251v39.059H474.333zM18.66 104.194a178.7 178.7 0 0 0-15.5 51.433h151.214l33.016-51.433z"/><path fill="#0f0e0b" d="M359.541 155.627a178.8 178.8 0 0 0-15.5-51.432h-90.636l-33.004-51.44h86.921C274.858 20.94 230.398 1.318 181.348 1.318c-49.051 0-93.505 19.623-125.975 51.433h165.028l-33.017 51.439 33.017 51.432h139.134zM88.354 258.505l-33.016 51.432c32.47 31.811 76.845 51.727 125.896 51.727 49.05 0 94.177-18.902 126.767-51.727h-186.63zM121.358 207.06H3.16a178.8 178.8 0 0 0 15.5 51.439h69.693zM154.374 258.505h189.667a178.7 178.7 0 0 0 15.5-51.433H187.39l-33.016-51.438-33.017 51.432"/></svg>

<svg width="1500" height="418" viewBox="0 0 1500 418" fill="none" xmlns="http://www.w3.org/2000/svg">
<path d="M1413.02 341.03C1394.71 341.03 1378.68 338.025 1364.95 332.016C1351.21 325.721 1340.48 317.566 1332.76 307.551C1325.03 297.25 1320.31 285.948 1318.59 273.644L1356.79 260.338H1358.51C1359.94 269.495 1362.95 277.506 1367.52 284.374C1372.39 291.241 1378.68 296.535 1386.41 300.255C1394.42 303.688 1403.29 305.405 1413.02 305.405C1421.03 305.405 1428.19 304.118 1434.48 301.542C1440.78 298.681 1445.5 294.818 1448.64 289.954C1452.08 285.089 1453.8 279.509 1453.8 273.214C1453.8 265.202 1451.22 258.907 1446.07 254.329C1441.21 249.465 1433.91 245.745 1424.18 243.17L1381.69 233.298C1371.39 230.722 1362.23 227.432 1354.22 223.426C1346.21 219.134 1339.48 212.982 1334.05 204.97C1328.61 196.958 1325.89 186.8 1325.89 174.496C1325.89 162.478 1329.32 151.604 1336.19 141.876C1343.06 131.861 1352.5 123.992 1364.52 118.269C1376.82 112.546 1390.84 109.685 1406.58 109.685C1421.75 109.685 1435.34 112.117 1447.36 116.981C1459.38 121.846 1469.1 128.713 1476.54 137.584C1484.27 146.168 1489.42 156.326 1492 168.058L1453.37 179.646H1451.65C1449.65 168.201 1444.5 159.33 1436.2 153.035C1428.19 146.454 1418.31 143.163 1406.58 143.163C1395.42 143.163 1386.27 146.025 1379.11 151.748C1372.25 157.47 1368.81 164.052 1368.81 171.491C1368.81 178.359 1371.24 183.938 1376.11 188.231C1380.97 192.236 1387.84 195.384 1396.71 197.673L1434.91 207.116C1447.79 210.263 1458.66 214.126 1467.53 218.705C1476.4 223.283 1483.55 229.864 1488.99 238.448C1494.43 247.032 1497.15 258.478 1497.15 272.785C1497.15 285.661 1493.57 297.25 1486.42 307.551C1479.26 317.852 1469.25 326.007 1456.37 332.016C1443.78 338.025 1429.33 341.03 1413.02 341.03Z" fill="#0F0E0B"/>
<path d="M1193.64 341.03C1172.46 341.03 1153.43 336.022 1136.55 326.007C1119.67 315.992 1106.51 302.258 1097.06 284.803C1087.62 267.062 1082.9 247.176 1082.9 225.143C1082.9 203.11 1087.62 183.366 1097.06 165.912C1106.51 148.457 1119.67 134.722 1136.55 124.707C1153.43 114.692 1172.46 109.685 1193.64 109.685C1214.81 109.685 1233.84 114.692 1250.72 124.707C1267.6 134.722 1280.77 148.6 1290.21 166.341C1299.94 183.795 1304.8 203.396 1304.8 225.143C1304.8 247.176 1299.94 267.062 1290.21 284.803C1280.77 302.258 1267.6 315.992 1250.72 326.007C1233.84 336.022 1214.81 341.03 1193.64 341.03ZM1193.64 304.547C1206.8 304.547 1218.53 301.113 1228.83 294.246C1239.13 287.378 1247.15 277.936 1252.87 265.918C1258.88 253.9 1261.88 240.308 1261.88 225.143C1261.88 209.977 1258.88 196.529 1252.87 184.797C1247.15 172.779 1239.13 163.336 1228.83 156.469C1218.53 149.601 1206.8 146.168 1193.64 146.168C1180.47 146.168 1168.74 149.601 1158.44 156.469C1148.14 163.336 1140.13 172.779 1134.41 184.797C1128.68 196.529 1125.82 209.977 1125.82 225.143C1125.82 240.308 1128.68 253.9 1134.41 265.918C1140.13 277.936 1148.14 287.378 1158.44 294.246C1168.74 301.113 1180.47 304.547 1193.64 304.547Z" fill="#0F0E0B"/>
<path d="M1044.76 341.105C1025.02 341.105 1009.14 335.383 997.118 323.937C985.386 312.205 979.52 295.037 979.52 272.432V149.248H939.604V114.052C953.624 114.052 963.21 113.051 968.361 111.048C973.797 108.759 977.231 104.324 978.662 97.7425C980.379 91.1612 981.237 79.2864 981.237 62.1179H1020.72V114.052H1079.1V149.248H1020.72V269.856C1020.72 281.588 1023.59 290.315 1029.31 296.038C1035.32 301.761 1042.76 304.622 1051.63 304.622C1056.49 304.622 1060.78 304.193 1064.5 303.335C1068.51 302.476 1072.37 300.759 1076.09 298.184V333.809C1073.23 335.812 1068.8 337.529 1062.79 338.959C1056.78 340.39 1050.77 341.105 1044.76 341.105Z" fill="#0F0E0B"/>
<path d="M720.23 415.283V386.097V150.031V115.694V113.977H761.435V146.168C768.016 135.581 777.888 126.853 791.05 119.986C804.499 113.119 818.806 109.685 833.971 109.685C853.429 109.685 871.027 114.692 886.764 124.707C902.788 134.722 915.236 148.6 924.106 166.341C932.976 183.795 937.411 203.539 937.411 225.572C937.411 247.605 932.833 267.492 923.677 285.232C914.806 302.687 902.359 316.422 886.335 326.437C870.598 336.165 852.714 341.03 832.684 341.03C818.091 341.03 804.213 337.596 791.05 330.729C777.888 323.861 768.016 315.134 761.435 304.547V386.097V415.283V417H720.23V415.283ZM826.675 304.547C839.837 304.547 851.569 301.256 861.87 294.675C872.171 288.094 880.183 278.794 885.906 266.776C891.629 254.758 894.49 241.167 894.49 226.001C894.49 210.263 891.629 196.386 885.906 184.368C880.183 172.35 872.314 163.05 862.299 156.469C852.285 149.601 840.839 146.168 827.963 146.168C815.945 146.168 805.071 149.029 795.342 154.752C785.614 160.189 777.745 167.914 771.736 177.929C765.727 187.658 762.293 198.818 761.435 211.408V240.165C762.293 252.755 765.584 263.915 771.307 273.644C777.316 283.372 785.041 290.955 794.484 296.392C804.213 301.828 814.943 304.547 826.675 304.547Z" fill="#0F0E0B"/>
<path d="M416.818 335.034L427.119 309.281L538.285 27.2891H581.636L692.801 309.281L703.532 335.034V336.751H655.46L654.601 335.034L644.73 309.281L559.746 86.5202L473.903 309.281L464.032 335.034L463.173 336.751H416.818V335.034ZM474.333 220.863H642.584V259.922H474.333V220.863Z" fill="#0F0E0B"/>
<path d="M18.6602 104.194C11.0632 120.18 5.7585 137.469 3.16016 155.627H154.374L187.39 104.194H18.6602Z" fill="#0F0E0B"/>
<path d="M359.541 155.627C356.937 137.463 351.638 120.181 344.041 104.195H253.405L220.401 52.7559H307.322C274.858 20.9397 230.398 1.31714 181.348 1.31714C132.297 1.31714 87.8433 20.9397 55.373 52.7499H220.401L187.384 104.189L220.401 155.621H359.535L359.541 155.627Z" fill="#0F0E0B"/>
<path d="M88.3542 258.505L55.3379 309.937C87.8081 341.748 132.183 361.664 181.234 361.664C230.284 361.664 275.411 342.762 308.001 309.937H121.371L88.3542 258.505Z" fill="#0F0E0B"/>
<path d="M121.358 207.06H3.16016C5.7645 225.23 11.0632 242.512 18.6602 258.499H88.3533L121.358 207.06Z" fill="#0F0E0B"/>
<path d="M154.374 258.505H344.041C351.638 242.519 356.942 225.231 359.541 207.072H187.39L154.374 155.634L121.357 207.066" fill="#0F0E0B"/>
</svg>
